X:198
T:Knotted Cord, The
T:Knot on the Cord, The
T:Junior Crehan's Favourite
R:reel
Z:id:hn-reel-198
M:C|
K:Ador
~A3B AE~E2|A2Bd edBA|~G3A GEDE|G2BG dGBG|
~A3B AE~E2|A2Bd edBA|G2 (3B^cd efge|1 dBGA BAAG:|2 dBGA BAA2||
|:ea~a2 ea~a2|eaab aged|eg~g2 eg~g2|egga gedg|
ea~a2 ea~a2|eaab aged|~B3d gaba|1 gedB BA~A2:|2 gedB BAGB||
P:variations
|:~A3B AE~E2|A2 (3Bcd edBA|GFGA GEDE|~G2BG dGBG|
~A3B AE~E2|A2 (3Bcd edBA|GABd gfge|dBGA BA~A2:|
|:ea~a2 eaag|eaag aged|eg~g2 eggf|~g3a geed|
ea~a2 eaag|eaag aged|BABd gaba|gedB BAA2:|

